;FLAVOR:UltiGCode
;TIME:19811
;MATERIAL:43353
;MATERIAL2:0
;NOZZLE_DIAMETER:0.4
;MINX:33.795
;MINY:33.795
;MINZ:0.27
;MAXX:189.205
;MAXY:189.205
;MAXZ:80.82
;TARGET_MACHINE.NAME:Ultimaker 2+
;Generated with Cura_SteamEngine 5.7.1
M82 ;absolute extrusion mode
G0 F3000 Y50 ;avoid prime blob
G92 E0
G92 E0
G10
;LAYER_COUNT:538
;LAYER:0
M107
G0 F9000 X34.885 Y37.291 Z0.27
;TYPE:SKIRT
G11
G1 F1800 X37.452 Y34.798 E0.38646
G1 X40.524 Y33.795 E0.73547
G1 X182.775 Y33.795 E16.09858
G1 X185.393 Y34.685 E16.39722
G1 X185.709 Y34.885 E16.43761
G1 X188.202 Y37.452 E16.82407
G1 X189.205 Y40.524 E17.17308
G1 X189.205 Y182.384 E32.49396
G1 X188.785 Y184.312 E32.70707
G1 X187.675 Y186.132 E32.9373
G1 X185.529 Y188.214 E33.26022
G1 X182.472 Y189.205 E33.60729
G1 X40.616 Y189.205 E48.92774
G1 X38.688 Y188.785 E49.14084
G1 X36.868 Y187.675 E49.37108
G1 X34.786 Y185.529 E49.694
G1 X33.795 Y182.472 E50.04107
G1 X33.795 Y40.225 E65.40374
G1 X34.685 Y37.607 E65.70238
G1 X34.885 Y37.291 E65.74277
G0 F9000 X35.164 Y37.578
G1 F1800 X37.665 Y35.149 E66.1193
G1 X40.587 Y34.195 E66.45127
G1 X182.708 Y34.195 E81.80034
G1 X185.264 Y35.064 E82.0919
G1 X185.422 Y35.164 E82.1121
G1 X187.851 Y37.665 E82.48863
G1 X188.805 Y40.587 E82.8206
G1 X188.805 Y182.34 E98.12992
G1 X188.408 Y184.163 E98.33142
G1 X187.362 Y185.878 E98.54837
G1 X185.317 Y187.862 E98.85609
G1 X182.408 Y188.805 E99.18636
G1 X40.66 Y188.805 E114.49514
G1 X38.837 Y188.408 E114.69664
G1 X37.122 Y187.362 E114.91359
G1 X35.138 Y185.317 E115.22131
G1 X34.195 Y182.408 E115.55158
G1 X34.195 Y40.292 E130.90011
G1 X35.064 Y37.736 E131.19168
G1 X35.164 Y37.578 E131.21187
G0 F9000 X35.443 Y37.865
G1 F1800 X37.878 Y35.5 E131.57847
G1 X40.65 Y34.595 E131.8934
G1 X182.641 Y34.595 E147.22843
G1 X185.135 Y35.443 E147.51292
G1 X187.5 Y37.878 E147.87953
G1 X188.405 Y40.65 E148.19445
G1 X188.405 Y182.296 E163.49222
G1 X188.031 Y184.014 E163.68211
G1 X187.049 Y185.624 E163.88578
G1 X185.105 Y187.51 E164.17831
G1 X182.344 Y188.405 E164.49177
G1 X40.704 Y188.405 E179.78889
G1 X38.986 Y188.031 E179.97878
G1 X37.376 Y187.049 E180.18245
G1 X35.49 Y185.105 E180.47497
G1 X34.595 Y182.344 E180.78843
G1 X34.595 Y40.359 E196.12281
G1 X35.443 Y37.865 E196.40731
G0 F9000 X35.791 Y38.085
G1 F1800 X38.091 Y35.851 E196.7536
G1 X40.713 Y34.995 E197.05148
G1 X182.574 Y34.995 E212.37247
G1 X184.915 Y35.791 E212.63951
G1 X187.149 Y38.091 E212.9858
G1 X188.005 Y40.713 E213.28369
G1 X188.005 Y182.252 E228.5699
G1 X187.654 Y183.865 E228.74818
G1 X186.736 Y185.37 E228.93857
G1 X184.893 Y187.158 E229.21589
G1 X182.28 Y188.005 E229.51255
G1 X40.748 Y188.005 E244.79801
G1 X39.135 Y187.654 E244.97629
G1 X37.63 Y186.736 E245.16668
G1 X35.842 Y184.893 E245.444
G1 X34.995 Y182.28 E245.74066
G1 X34.995 Y40.426 E261.06089
G1 X35.791 Y38.085 E261.32794
G0 F9000 X36.139 Y38.305
G1 F1800 X38.304 Y36.202 E261.65391
G1 X40.776 Y35.395 E261.93475
G1 X182.507 Y35.395 E277.2417
G1 X184.695 Y36.139 E277.49129
G1 X186.798 Y38.304 E277.81726
G1 X187.605 Y40.776 E278.0981
G1 X187.605 Y182.208 E293.37276
G1 X187.277 Y183.716 E293.53943
G1 X186.423 Y185.116 E293.71654
G1 X184.681 Y186.806 E293.97867
G1 X182.216 Y187.605 E294.25852
G1 X40.792 Y187.605 E309.53231
G1 X39.284 Y187.277 E309.69899
G1 X37.884 Y186.423 E309.8761
G1 X36.194 Y184.681 E310.13822
G1 X35.395 Y182.216 E310.41808
G1 X35.395 Y40.493 E325.72416
G1 X36.139 Y38.305 E325.97375
G0 F9000 X36.487 Y38.525
G1 F1800 X38.517 Y36.553 E326.27941
G1 X40.839 Y35.795 E326.54321
G1 X182.44 Y35.795 E341.83611
G1 X184.475 Y36.487 E342.06825
G1 X186.447 Y38.517 E342.37391
G1 X187.205 Y40.839 E342.63771
G1 X187.205 Y182.164 E357.90081
G1 X186.9 Y183.567 E358.05587
G1 X186.11 Y184.862 E358.2197
G1 X184.469 Y186.454 E358.46663
G1 X182.152 Y187.205 E358.72968
G1 X40.836 Y187.205 E373.99181
G1 X39.433 Y186.9 E374.14687
G1 X38.138 Y186.11 E374.3107
G1 X36.546 Y184.469 E374.55763
G1 X35.795 Y182.152 E374.82068
G1 X35.795 Y40.56 E390.11261
G1 X36.487 Y38.525 E390.34475
G0 F9000 X36.835 Y38.745
G1 F1800 X38.73 Y36.904 E390.63009
G1 X40.902 Y36.195 E390.87685
G1 X182.373 Y36.195 E406.15572
G1 X184.255 Y36.835 E406.3704
G1 X186.096 Y38.73 E406.65574
G1 X186.805 Y40.902 E406.9025
G1 X186.805 Y182.12 E422.15404
G1 X186.523 Y183.418 E422.2975
G1 X185.797 Y184.608 E422.44805
G1 X184.257 Y186.102 E422.67977
G1 X182.088 Y186.805 E422.92602
G1 X40.88 Y186.805 E438.17649
G1 X39.582 Y186.523 E438.31994
G1 X38.392 Y185.797 E438.47049
G1 X36.898 Y184.257 E438.70222
G1 X36.195 Y182.088 E438.94847
G1 X36.195 Y40.627 E454.22625
G1 X36.835 Y38.745 E454.44094
G0 F9000 X37.183 Y38.965
G1 F1800 X38.943 Y37.255 E454.70596
G1 X40.965 Y36.595 E454.93568
G1 X182.306 Y36.595 E470.20051
G1 X184.035 Y37.183 E470.39774
G1 X185.745 Y38.943 E470.66276
G1 X186.405 Y40.965 E470.89248
G1 X186.405 Y182.076 E486.13247
G1 X186.146 Y183.269 E486.26431
G1 X185.484 Y184.354 E486.40158
G1 X184.045 Y185.75 E486.61811
G1 X182.024 Y186.405 E486.84755
G1 X40.924 Y186.405 E502.08635
G1 X39.731 Y186.146 E502.2182
G1 X38.646 Y185.484 E502.35547
G1 X37.25 Y184.045 E502.57199
G1 X36.595 Y182.024 E502.80144
G1 X36.595 Y40.694 E518.06508
G1 X37.183 Y38.965 E518.26231
G0 F9000 X37.531 Y39.185
G1 F1800 X39.156 Y37.606 E518.50702
G1 X41.028 Y36.995 E518.71969
G1 X182.239 Y36.995 E533.97048
G1 X183.815 Y37.531 E534.15026
G1 X185.394 Y39.156 E534.39497
G1 X186.005 Y41.028 E534.60764
G1 X186.005 Y182.032 E549.83608
G1 X185.769 Y183.12 E549.95631
G1 X185.171 Y184.1 E550.0803
G1 X183.833 Y185.398 E550.28163
G1 X181.96 Y186.005 E550.49427
G1 X40.968 Y186.005 E565.72141
G1 X39.88 Y185.769 E565.84164
G1 X38.9 Y185.171 E565.96563
G1 X37.602 Y183.833 E566.16696
G1 X36.995 Y181.96 E566.3796
G1 X36.995 Y40.761 E581.62909
G1 X37.531 Y39.185 E581.80888
G0 F9000 X37.879 Y39.405
G1 F1800 X39.369 Y37.957 E582.03327
G1 X41.091 Y37.395 E582.2289
G1 X182.172 Y37.395 E597.46564
G1 X183.595 Y37.879 E597.62797
G1 X185.043 Y39.369 E597.85237
G1 X185.605 Y41.091 E598.048
G1 X185.605 Y181.988 E613.26487
G1 X185.392 Y182.969 E613.37329
G1 X184.856 Y183.848 E613.48448
G1 X183.62 Y185.047 E613.67045
G1 X181.899 Y185.605 E613.86585
G1 X41.012 Y185.605 E629.08164
G1 X40.031 Y185.392 E629.19006
G1 X39.152 Y184.856 E629.30125
G1 X37.953 Y183.62 E629.48723
G1 X37.395 Y181.899 E629.68262
G1 X37.395 Y40.828 E644.91829
G1 X37.879 Y39.405 E645.08062
G0 F9000 X38.227 Y39.625
G1 F1800 X39.582 Y38.308 E645.28469
G1 X41.154 Y37.795 E645.46328
G1 X182.105 Y37.795 E660.68599
G1 X183.375 Y38.227 E660.83087
G1 X184.692 Y39.582 E661.03494
G1 X185.205 Y41.154 E661.21353
G1 X185.205 Y181.944 E676.41885
G1 X185.015 Y182.818 E676.51545
G1 X184.541 Y183.596 E676.61384
G1 X183.407 Y184.696 E676.78446
G1 X181.838 Y185.205 E676.96261
G1 X41.056 Y185.205 E692.16706
G1 X40.182 Y185.015 E692.26366
G1 X39.404 Y184.541 E692.36205
G1 X38.304 Y183.407 E692.53267
G1 X37.795 Y181.838 E692.71082
G1 X37.795 Y40.895 E707.93266
G1 X38.227 Y39.625 E708.07754
G0 F9000 X38.575 Y39.845
G1 F1800 X39.795 Y38.659 E708.2613
G1 X41.217 Y38.195 E708.42285
G1 X182.038 Y38.195 E723.63151
G1 X183.155 Y38.575 E723.75894
G1 X184.341 Y39.795 E723.9427
G1 X184.805 Y41.217 E724.10424
G1 X184.805 Y181.9 E739.29801
G1 X184.638 Y182.667 E739.38278
G1 X184.224 Y183.347 E739.46876
G1 X183.195 Y184.345 E739.62358
G1 X181.777 Y184.805 E739.78458
G1 X41.1 Y184.805 E754.9777
G1 X40.333 Y184.638 E755.06247
G1 X39.653 Y184.224 E755.14845
G1 X38.655 Y183.195 E755.30327
G1 X38.195 Y181.777 E755.46427
G1 X38.195 Y40.962 E770.67229
G1 X38.575 Y39.845 E770.79971
G0 F9000 X38.923 Y40.065
G1 F1800 X40.008 Y39.01 E770.96316
G1 X41.28 Y38.595 E771.10766
G1 X181.971 Y38.595 E786.30229
G1 X182.935 Y38.923 E786.41226
G1 X183.99 Y40.008 E786.5757
G1 X184.405 Y41.28 E786.72021
G1 X184.405 Y181.856 E801.90241
G1 X184.261 Y182.516 E801.97537
G1 X183.907 Y183.098 E802.04894
G1 X182.983 Y183.994 E802.18795
G1 X181.716 Y184.405 E802.3318
G1 X41.144 Y184.405 E817.51358
G1 X40.484 Y184.261 E817.58653
G1 X39.902 Y183.907 E817.6601
G1 X39.006 Y182.983 E817.79911
G1 X38.595 Y181.716 E817.94297
G1 X38.595 Y41.029 E833.13716
G1 X38.923 Y40.065 E833.24713
G0 F9000 X39.271 Y40.285
G1 F1800 X40.221 Y39.361 E833.39026
G1 X41.343 Y38.995 E833.51772
G1 X181.904 Y38.995 E848.69831
G1 X182.715 Y39.271 E848.79083
G1 X183.639 Y40.221 E848.93396
G1 X184.005 Y41.343 E849.06142
G1 X184.005 Y181.812 E864.23207
G1 X183.884 Y182.365 E864.29321
G1 X183.59 Y182.849 E864.35437
G1 X182.771 Y183.643 E864.47756
G1 X181.655 Y184.005 E864.60427
G1 X41.188 Y184.005 E879.77471
G1 X40.635 Y183.884 E879.83585
G1 X40.151 Y183.59 E879.89701
G1 X39.357 Y182.771 E880.0202
G1 X38.995 Y181.655 E880.14691
G1 X38.995 Y41.096 E895.32728
G1 X39.271 Y40.285 E895.4198
G0 F9000 X39.619 Y40.505
G1 F1800 X40.434 Y39.712 E895.54261
G1 X41.406 Y39.395 E895.65303
G1 X181.837 Y39.395 E910.81958
G1 X182.495 Y39.619 E910.89465
G1 X183.288 Y40.434 E911.01746
G1 X183.605 Y41.406 E911.12788
G1 X183.605 Y181.812 E926.29173
G1 X183.495 Y182.272 E926.34281
G1 X183.312 Y182.562 E926.37984
G1 X182.56 Y183.291 E926.49295
G1 X181.593 Y183.605 E926.60276
G1 X41.188 Y183.605 E941.7665
G1 X40.728 Y183.495 E941.81758
G1 X40.438 Y183.312 E941.85461
G1 X39.709 Y182.56 E941.96773
G1 X39.395 Y181.593 E942.07753
G1 X39.395 Y41.163 E957.24397
G1 X39.619 Y40.505 E957.31904
G0 F9000 X39.967 Y40.725
G1 F1800 X40.647 Y40.063 E957.42154
G1 X41.469 Y39.795 E957.51491
G1 X181.77 Y39.795 E972.66742
G1 X182.275 Y39.967 E972.72504
G1 X182.937 Y40.647 E972.82753
G1 X183.205 Y41.469 E972.9209
G1 X183.205 Y181.772 E988.07363
G1 X183.146 Y182.076 E988.10707
G1 X183.034 Y182.275 E988.13174
G1 X182.349 Y182.939 E988.23477
G1 X181.531 Y183.205 E988.32767
G1 X41.228 Y183.205 E1003.48039
G1 X40.924 Y183.146 E1003.51383
G1 X40.725 Y183.034 E1003.5385
G1 X40.061 Y182.349 E1003.64153
G1 X39.795 Y181.531 E1003.73443
G1 X39.795 Y41.23 E1018.88693
G1 X39.967 Y40.725 E1018.94455
G0 F9000 X40.246 Y41.012
G1 F1800 X40.86 Y40.414 E1019.03712
G1 X41.532 Y40.195 E1019.11345
G1 X181.77 Y40.195 E1034.25915
G1 X181.988 Y40.246 E1034.28333
G1 X182.586 Y40.86 E1034.3759
G1 X182.805 Y41.532 E1034.45223
G1 X182.805 Y181.772 E1049.59815
G1 X182.756 Y181.988 E1049.62207
G1 X182.138 Y182.587 E1049.71502
G1 X181.468 Y182.805 E1049.79112
G1 X41.228 Y182.805 E1064.93704
G1 X41.012 Y182.756 E1064.96096
G1 X40.413 Y182.138 E1065.05391
G1 X40.195 Y181.468 E1065.13
G1 X40.195 Y41.23 E1080.27571
G1 X40.246 Y41.012 E1080.29989
G0 F9000 X40.595 Y41.23
G1 F1800 X41.073 Y40.765 E1080.37191
G1 X41.595 Y40.595 E1080.4312
G1 X181.77 Y40.595 E1095.5701
G1 X182.235 Y41.073 E1095.64212
G1 X182.405 Y41.595 E1095.70141
G1 X182.405 Y181.772 E1110.84052
G1 X181.927 Y182.235 E1110.9124
G1 X181.405 Y182.405 E1110.97169
G1 X41.228 Y182.405 E1126.1108
G1 X40.765 Y181.927 E1126.18267
G1 X40.595 Y181.405 E1126.24196
G1 X40.595 Y41.23 E1141.38086
G0 F9000 X41.395 Y41.496
G1 F1800 X41.595 Y41.395 E1141.40506
G1 X181.504 Y41.395 E1156.51523
G1 X181.605 Y41.595 E1156.53943
G1 X181.605 Y181.504 E1171.6496
G1 X181.405 Y181.605 E1171.6738
G1 X41.496 Y181.605 E1186.78397
G1 X41.395 Y181.405 E1186.80817
G1 X41.395 Y41.496 E1201.91834
G0 F9000 X41.215 Y41.139
G1 F1800 X41.595 Y40.995 E1201.96223
G1 X181.636 Y40.995 E1217.08666
G1 X181.861 Y41.215 E1217.12065
G1 X182.005 Y41.595 E1217.16453
G1 X182.005 Y181.637 E1232.28907
G1 X181.785 Y181.861 E1232.32298
G1 X181.405 Y182.005 E1232.36687
G1 X41.363 Y182.005 E1247.4914
G1 X41.139 Y181.785 E1247.52531
G1 X40.995 Y181.405 E1247.5692
G1 X40.995 Y41.364 E1262.69363
G1 X41.215 Y41.139 E1262.72761
G10
;MESH:140mm_Fan_Duct.stl
G0 F9000 X46.447 Y46.022
G0 X47.905 Y48.73
;TYPE:WALL-OUTER
G11
G1 F1800 X47.527 Y48.796 E1262.7732
G1 X47.083 Y48.727 E1262.82658
G1 X46.726 Y48.538 E1262.87457
G1 X46.42 Y48.216 E1262.92734
G1 X46.254 Y47.857 E1262.97433
G1 X46.202 Y47.481 E1263.01942
G1 X46.272 Y47.087 E1263.06696
G1 X46.462 Y46.726 E1263.11542
G1 X46.726 Y46.462 E1263.15978
G1 X47.087 Y46.272 E1263.20824
G1 X47.512 Y46.2 E1263.25945
G1 X47.857 Y46.254 E1263.30094
G1 X48.218 Y46.425 E1263.34839
G1 X48.537 Y46.725 E1263.40041
G1 X48.727 Y47.082 E1263.44846
G1 X48.794 Y47.517 E1263.50075
G1 X48.726 Y47.918 E1263.54907
G1 X48.549 Y48.258 E1263.5946
G1 X48.27 Y48.543 E1263.64198
G1 X47.905 Y48.73 E1263.69071
G0 F9000 X47.709 Y48.764
G10
G0 X47.759 Y49.061
G0 X48.986 Y48.507
G0 X174.04 Y48.554
G0 X175.078 Y48.726
G11
G1 F1800 X174.735 Y48.547 E1263.73667
G1 X174.436 Y48.238 E1263.78775
G1 X174.266 Y47.903 E1263.83238
G1 X174.204 Y47.516 E1263.87894
G1 X174.269 Y47.083 E1263.93096
G1 X174.426 Y46.775 E1263.97203
G1 X174.726 Y46.462 E1264.02353
G1 X175.087 Y46.272 E1264.072
G1 X175.512 Y46.2 E1264.12321
G1 X175.857 Y46.254 E1264.16469
G1 X176.244 Y46.442 E1264.21581
G1 X176.539 Y46.727 E1264.26454
G1 X176.728 Y47.087 E1264.31284
G1 X176.795 Y47.512 E1264.36395
G1 X176.746 Y47.859 E1264.40559
G1 X176.54 Y48.268 E1264.45999
G1 X176.245 Y48.558 E1264.50913
G1 X175.915 Y48.726 E1264.55313
G1 X175.479 Y48.794 E1264.60555
G1 X175.078 Y48.726 E1264.65387
G0 F9000 X174.901 Y48.634
G10
G0 X174.768 Y48.903
G0 X175.505 Y49.296
G0 X174.439 Y174.042
G0 X174.421 Y176.219
G11
G1 F1800 X174.269 Y175.913 E1264.69446
G1 X174.206 Y175.481 E1264.74632
G1 X174.276 Y175.063 E1264.79667
G1 X174.436 Y174.758 E1264.83759
G1 X174.758 Y174.436 E1264.89169
G1 X175.063 Y174.276 E1264.93261
G1 X175.51 Y174.204 E1264.98639
G1 X175.914 Y174.269 E1265.03501
G1 X176.269 Y174.461 E1265.08295
G1 X176.576 Y174.779 E1265.13546
G1 X176.746 Y175.145 E1265.18341
G1 X176.795 Y175.512 E1265.22739
G1 X176.746 Y175.859 E1265.26903
G1 X176.54 Y176.268 E1265.32343
G1 X176.244 Y176.559 E1265.37274
G1 X175.855 Y176.746 E1265.42402
G1 X175.483 Y176.795 E1265.46859
G1 X175.087 Y176.728 E1265.51631
G1 X174.726 Y176.538 E1265.56477
G1 X174.421 Y176.219 E1265.6172
G0 F9000 X174.333 Y176.041
G10
G0 X174.065 Y176.176
G0 X175.044 Y176.972
G0 X176.579 Y176.958
G0 X176.579 Y180.684
G0 X181.204 Y181.204
G11
G1 F1800 X181.204 Y41.792 E1282.17935
G1 X41.792 Y41.792 E1298.74149
G1 X41.792 Y181.204 E1315.30364
G1 X181.204 Y181.204 E1331.86579
G0 F9000 X181.204 Y181.004
G10
G0 X180.905 Y181.004
G0 X111.465 Y180.684
G0 X111.508 Y177.305
G0 X111.512 Y176.799
G11
G1 F1800 X91.305 Y173.595 E1334.29637
G1 X73.142 Y164.343 E1336.71795
G1 X58.662 Y149.867 E1339.15037
G1 X49.401 Y131.691 E1341.57382
G1 X46.197 Y111.512 E1344.00111
G1 X49.401 Y91.305 E1346.43169
G1 X58.653 Y73.142 E1348.85327
G1 X73.129 Y58.662 E1351.2857
G1 X91.305 Y49.401 E1353.70914
G1 X111.512 Y46.197 E1356.13972
G1 X131.691 Y49.401 E1358.56702
G1 X149.854 Y58.653 E1360.9886
G1 X164.343 Y73.142 E1363.42288
G1 X173.595 Y91.305 E1365.84446
G1 X176.799 Y111.484 E1368.27175
G1 X173.595 Y131.691 E1370.70233
G1 X164.343 Y149.854 E1373.12391
G1 X149.867 Y164.334 E1375.55634
G1 X131.691 Y173.595 E1377.97978
G1 X111.512 Y176.799 E1380.40708
G0 F9000 X111.315 Y176.768
G10
G0 X111.268 Y177.063
G0 X91.149 Y174.079
G0 X49.295 Y175.512
G0 X48.575 Y176.219
G11
G1 F1800 X48.244 Y176.559 E1380.46345
G1 X47.855 Y176.746 E1380.51473
G1 X47.483 Y176.795 E1380.5593
G1 X47.087 Y176.728 E1380.60701
G1 X46.726 Y176.538 E1380.65548
G1 X46.42 Y176.216 E1380.70825
G1 X46.254 Y175.857 E1380.75524
G1 X46.202 Y175.481 E1380.80033
G1 X46.272 Y175.087 E1380.84787
G1 X46.462 Y174.726 E1380.89634
G1 X46.775 Y174.426 E1380.94784
G1 X47.083 Y174.269 E1380.98891
G1 X47.545 Y174.206 E1381.04431
G1 X47.903 Y174.266 E1381.08743
G1 X48.238 Y174.436 E1381.13206
G1 X48.547 Y174.735 E1381.18314
G1 X48.722 Y175.069 E1381.22794
G1 X48.796 Y175.469 E1381.27626
G1 X48.727 Y175.913 E1381.32964
G1 X48.575 Y176.219 E1381.37023
G0 F9000 X48.436 Y176.362
G0 X48.932 Y176.4
;TYPE:WALL-INNER
G1 F1800 X48.426 Y176.915 E1381.44431
G1 X47.916 Y177.142 E1381.50158
G1 X47.512 Y177.196 E1381.5434
G1 X47.091 Y177.142 E1381.58695
G1 X46.602 Y176.935 E1381.64143
G1 X46.175 Y176.553 E1381.70022
G1 X45.86 Y175.923 E1381.77248
G1 X45.8 Y175.512 E1381.8151
G1 X45.859 Y175.084 E1381.85943
G1 X46.179 Y174.443 E1381.93293
G1 X46.59 Y174.072 E1381.98974
G1 X46.963 Y173.887 E1382.03246
G1 X47.421 Y173.81 E1382.08011
G1 X48.005 Y173.879 E1382.14044
